X:2033
T:Arrane ny jinnyn 
C:Richard Qualtrough, Parish Clek, Rushen
O:Isle of Man
S:Traditional
Z:Clague collection
B:Kiaull Vannin #33
Z:KV33 
L:1/4
M:2/4 
Q:50 
K:D 
F|B B/c/|d d/c/|B B/A/|F F/F/|B B/c/|d e/e/|f d/e/|f f/f/| 
A a/g/|f e/c/|!fermata!d/!fermata!/c/ B/c/|d c/B/|B/!fermata!F/ c/d/|e/c/ d/e/|f/e/ d/c/|B|| 
